img/header/logo.svg

<svg width="300" height="41" viewBox="0 0 300 41" fill="none" xmlns="http://www.w3.org/2000/svg">
<path d="M36.2721 12.5346H40.0244V24.9458L48.0781 12.5346H52.0744V31.1822H48.3221V19.0181L40.299 31.1822H36.2721V12.5346V12.5346Z" fill="white"/>
<path d="M57.23 12.5346H65.1922C66.7785 12.5346 67.9378 12.5964 68.7309 12.7199C69.4936 12.8434 70.1952 13.0904 70.8054 13.4917C71.4155 13.8931 71.9341 14.387 72.3307 15.0354C72.7273 15.6837 72.9408 16.4247 72.9408 17.2274C72.9408 18.0919 72.6968 18.8946 72.1782 19.6355C71.6901 20.3765 70.9884 20.9014 70.1342 21.2718C71.3545 21.6114 72.2697 22.1672 72.9408 22.9699C73.5814 23.7726 73.917 24.6988 73.917 25.7794C73.917 26.613 73.7035 27.4465 73.2764 28.2492C72.8493 29.052 72.2697 29.7003 71.5375 30.1634C70.8054 30.6574 69.9207 30.9352 68.853 31.0587C68.1818 31.1205 66.565 31.1822 64.0024 31.1822H57.23V12.5346ZM61.2569 15.622V19.9443H63.8804C65.4362 19.9443 66.4124 19.9134 66.809 19.8825C67.5107 19.8208 68.0293 19.5738 68.4259 19.2033C68.8224 18.8328 69.0055 18.3389 69.0055 17.7523C69.0055 17.1657 68.8224 16.7026 68.4869 16.3321C68.1513 15.9616 67.6327 15.7455 66.9616 15.6837C66.565 15.6529 65.4057 15.622 63.5143 15.622H61.2569V15.622ZM61.2569 23.0625V28.064H64.9786C66.4124 28.064 67.3581 28.0331 67.7242 27.9405C68.3343 27.8479 68.8224 27.6009 69.1885 27.1995C69.5546 26.7982 69.7376 26.2733 69.7376 25.625C69.7376 25.0693 69.5851 24.5753 69.3105 24.2048C69.036 23.8343 68.6089 23.5256 68.0598 23.3404C67.5107 23.1551 66.3209 23.0625 64.4905 23.0625H61.2569Z" fill="white"/>
<path d="M91.7023 31.1822H87.3398L85.601 26.9526H77.6388L75.9915 31.1822H71.7206L79.4692 12.5346H83.7096L91.7023 31.1822ZM84.3197 23.8035L81.5741 16.8878L78.8896 23.8035H84.3197Z" fill="white"/>
<path d="M93.014 31.1822V12.5346H97.0409V19.8825H104.912V12.5346H108.938V31.1822H104.912V23.0316H97.0409V31.1822H93.014Z" fill="white"/>
<path d="M122.666 12.5346H126.693V28.064H134.472V12.5346H138.499V28.064H140.146V35.2575H136.791V31.1822H122.636V12.5346H122.666Z" fill="white"/>
<path d="M144.692 12.5346H148.444V24.9458L156.498 12.5346H160.494V31.1822H156.742V19.0181L148.719 31.1822H144.692V12.5346Z" fill="white"/>
<path d="M165.589 31.1822V12.5346H171.599L175.198 25.2545L178.768 12.5346H184.808V31.1822H181.086V16.4864L177.12 31.1822H173.246L169.311 16.4864V31.1822H165.589Z" fill="white"/>
<path d="M188.865 12.5346H203.752V15.6529H192.892V19.9751H198.261C199.756 19.9751 200.976 20.1604 201.952 20.4691C202.929 20.8087 203.752 21.4262 204.454 22.3524C205.156 23.2786 205.491 24.3283 205.491 25.5633C205.491 26.8291 205.156 27.9096 204.454 28.805C203.752 29.7003 202.959 30.3178 202.074 30.6574C201.19 30.997 199.908 31.1514 198.261 31.1514H188.865V12.5346V12.5346ZM192.892 28.064H196.797C198.048 28.064 198.932 28.0023 199.42 27.8788C199.908 27.7553 200.366 27.5083 200.732 27.1069C201.098 26.7056 201.281 26.2116 201.281 25.5941C201.281 24.7297 200.946 24.1122 200.305 23.7108C199.634 23.3095 198.536 23.1242 196.949 23.1242H192.862V28.064H192.892Z" fill="white"/>
<path d="M223.368 31.1822H219.006L217.267 26.9526H209.304L207.657 31.1822H203.386L211.135 12.5346H215.375L223.368 31.1822ZM215.955 23.8035L213.209 16.8878L210.525 23.8035H215.955Z" fill="white"/>
<path d="M227.09 12.5346H241.031V31.1822H237.035V15.6837H231.056V23.6491C231.056 25.9337 230.964 27.5083 230.811 28.4345C230.659 29.3607 230.262 30.0399 229.622 30.5339C228.981 31.0279 228.005 31.3057 226.663 31.3057C226.205 31.3057 225.351 31.2749 224.1 31.1822V28.2801H224.985C225.839 28.2801 226.388 28.1875 226.693 27.9714C226.968 27.7553 227.12 27.2304 227.12 26.3968V23.186V12.5346H227.09Z" fill="white"/>
<path d="M245.241 12.5346H248.993V24.9458L257.047 12.5346H261.043V31.1822H257.291V19.0181L249.237 31.1822H245.21V12.5346H245.241Z" fill="white"/>
<path d="M278.92 24.3283L282.825 25.5015C282.215 27.5392 281.239 29.052 279.835 30.0399C278.432 31.0279 276.693 31.5218 274.558 31.5218C271.904 31.5218 269.738 30.6883 268.029 28.9902C266.321 27.2922 265.467 24.9767 265.467 22.0437C265.467 18.9255 266.321 16.5173 268.029 14.8193C269.738 13.0904 271.995 12.2568 274.771 12.2568C277.212 12.2568 279.195 12.936 280.72 14.2944C281.635 15.0971 282.306 16.2395 282.764 17.7214L278.798 18.6167C278.554 17.6596 278.066 16.8878 277.334 16.3321C276.602 15.7764 275.686 15.4985 274.619 15.4985C273.154 15.4985 271.934 15.9925 271.019 16.9804C270.104 17.9684 269.646 19.5738 269.646 21.7967C269.646 24.1431 270.104 25.8411 271.019 26.8291C271.934 27.817 273.093 28.3419 274.558 28.3419C275.625 28.3419 276.541 28.0331 277.303 27.3848C278.066 26.7364 278.584 25.6867 278.92 24.3283Z" fill="white"/>
<path d="M289.506 31.1822V15.6837H283.588V12.5346H299.42V15.6837H293.533V31.1822H289.506Z" fill="white"/>
<path d="M23.3679 31.0896V11.5776H18.8835V31.0896H8.23673V35.2575H22.3307V39.3637H26.5406V31.0896H23.3679Z" fill="white"/>
<path d="M15.2532 11.5776L4.2709 21.9819V8.61371H0V31.7688L15.2532 17.3509V11.5776Z" fill="white"/>
<path d="M0 0V4.63102H4.57596L0 0Z" fill="white"/>
</svg>

<svg fill="none" viewBox="0 0 300 41" xmlns="http://www.w3.org/2000/svg">
  <path fill="#fff" d="M36.272 12.535h3.752v12.41l8.054-12.41h3.996v18.647h-3.752V19.018L40.3 31.182h-4.027V12.535zM57.23 12.535h7.962c1.587 0 2.746.061 3.539.185.763.123 1.464.37 2.074.772.61.401 1.13.895 1.526 1.543.396.649.61 1.39.61 2.192a4.1 4.1 0 01-.763 2.409c-.488.74-1.19 1.265-2.044 1.636 1.22.34 2.136.895 2.807 1.698.64.803.976 1.729.976 2.81 0 .833-.213 1.666-.64 2.47-.428.802-1.007 1.45-1.74 1.913-.732.494-1.616.772-2.684.896-.671.061-2.288.123-4.85.123H57.23V12.535zm4.027 3.087v4.322h2.623c1.556 0 2.532-.03 2.929-.061.702-.062 1.22-.31 1.617-.68.396-.37.58-.864.58-1.45 0-.587-.184-1.05-.52-1.42-.335-.371-.853-.587-1.524-.65-.397-.03-1.556-.061-3.448-.061h-2.257zm0 7.44v5.002h3.722c1.433 0 2.38-.03 2.745-.123.61-.093 1.098-.34 1.465-.741.366-.402.549-.927.549-1.575 0-.556-.153-1.05-.427-1.42-.275-.37-.702-.68-1.251-.865-.55-.185-1.74-.277-3.57-.277h-3.233z"/>
  <path fill="#fff" d="M91.702 31.182H87.34l-1.739-4.23h-7.962l-1.647 4.23H71.72l7.748-18.647h4.24l7.993 18.647zm-7.382-7.378l-2.746-6.916-2.684 6.915h5.43zM93.014 31.182V12.535h4.027v7.348h7.871v-7.348h4.026v18.647h-4.026v-8.15h-7.871v8.15h-4.027zM122.666 12.535h4.027v15.529h7.779v-15.53h4.027v15.53h1.647v7.194h-3.355v-4.076h-14.155V12.535h.03zM144.692 12.535h3.752v12.41l8.054-12.41h3.996v18.647h-3.752V19.018l-8.023 12.164h-4.027V12.535zM165.589 31.182V12.535h6.01l3.599 12.72 3.57-12.72h6.04v18.647h-3.722V16.486l-3.966 14.696h-3.874l-3.935-14.696v14.696h-3.722zM188.865 12.535h14.887v3.118h-10.86v4.322h5.369c1.495 0 2.715.185 3.691.494.977.34 1.8.957 2.502 1.883.702.927 1.037 1.976 1.037 3.211 0 1.266-.335 2.347-1.037 3.242s-1.495 1.513-2.38 1.852c-.884.34-2.166.494-3.813.494h-9.396V12.535zm4.027 15.529h3.905c1.251 0 2.135-.062 2.623-.185.488-.124.946-.37 1.312-.772.366-.401.549-.895.549-1.513 0-.864-.335-1.482-.976-1.883-.671-.401-1.769-.587-3.356-.587h-4.087v4.94h.03z"/>
  <path fill="#fff" d="M223.368 31.182h-4.362l-1.739-4.23h-7.963l-1.647 4.23h-4.271l7.749-18.647h4.24l7.993 18.647zm-7.413-7.378l-2.746-6.916-2.684 6.915h5.43zM227.09 12.535h13.941v18.647h-3.996V15.684h-5.979v7.965c0 2.285-.092 3.86-.245 4.785-.152.927-.549 1.606-1.189 2.1-.641.494-1.617.772-2.959.772-.458 0-1.312-.031-2.563-.124V28.28h.885c.854 0 1.403-.093 1.708-.309.275-.216.427-.74.427-1.574V12.535h-.03zM245.241 12.535h3.752v12.41l8.054-12.41h3.996v18.647h-3.752V19.018l-8.054 12.164h-4.027V12.535h.031zM278.92 24.328l3.905 1.174c-.61 2.037-1.586 3.55-2.99 4.538-1.403.988-3.142 1.482-5.277 1.482-2.654 0-4.82-.834-6.529-2.532-1.708-1.698-2.562-4.013-2.562-6.946 0-3.119.854-5.527 2.562-7.225 1.709-1.729 3.966-2.562 6.742-2.562 2.441 0 4.424.679 5.949 2.037.915.803 1.586 1.945 2.044 3.427l-3.966.896c-.244-.957-.732-1.73-1.464-2.285-.732-.556-1.648-.834-2.715-.834-1.465 0-2.685.495-3.6 1.482-.915.988-1.373 2.594-1.373 4.817 0 2.346.458 4.044 1.373 5.032.915.988 2.074 1.513 3.539 1.513 1.067 0 1.983-.309 2.745-.957.763-.649 1.281-1.698 1.617-3.057zM289.506 31.182V15.684h-5.918v-3.15h15.832v3.15h-5.887v15.498h-4.027zM23.368 31.09V11.578h-4.484V31.09H8.237v4.168H22.33v4.106h4.21V31.09h-3.173zM15.253 11.578L4.271 21.982V8.614H0v23.155L15.253 17.35v-5.773zM0 0v4.631h4.576L0 0z"/>
</svg>
